X:21112 
T:LONG STRAND (reel), The
B:DMI.0794
Z:Nordberg/Black
R:reel
%Q:1/4=180
M:C|
L:1/8
K:G
G3B dBB2|gBBc dcBA|G3B d2BG|Ac BA GEEF|
G3B dBB2|gBBc d2cd|egde Bdef|gedB AGEG||
g3f afge|dBB2 GABd|gfaf gedB|DAFA DAFD|
g2fg afge|dBBd g2fg|egde Bdef|gbaf gfef||
"final"Hg4z4|]

%%%

